X:85
T:Julia Harrington's Polka
B:Terry "Cuz" Teahan "Sliabh Luachra on Parade" 1980
Z:Patrick Cavanagh
M:2/4
L:1/8
R:Polka
K:D
A | d2 cB | BA FA | d2 de | fa fe | 
d2 c2 | BA FA | dB cA | B2 B :| 
A | d2 de | fa fe | d2 df | eB BA | 
d2 de | fa fe | dB cA | B2 B :|| 

